X: 42250
T: We'll All Lie Together
R: slip jig
M: 9/8
K: Gmajor
|:G2 B d2 B c A2|G2 B d2 B cBA|G2 B d2 e c3|AcA F2 A cBA:|
|:G2 D- D2 E F2 D|G2 D- D2 B cBA|G2 D- D2 E F2 G|ABA F2 A cBA:|

